dist/svg/chart-table.svg

<!-- Generated by Trend Micro Style Portal -->
<svg version="1.1" xmlns="http://www.w3.org/2000/svg" width="16" height="16" viewBox="0 0 16 16">
  <title>chart-table</title>
  <path fill="rgb(34,34,34)" d="M15 1h-14c-0.552 0.002-0.998 0.448-1 1v12c0.002 0.552 0.448 0.998 1 1h14c0.552-0.002 0.998-0.448 1-1v-12c-0.002-0.552-0.448-0.998-1-1h-0zM10 3v3h-4v-3zM10 7v3h-4v-3zM1 3h4v3h-4zM1 7h4v3h-4zM1 14v-3h4v3zM6 14v-3h4v3zM15 14h-4v-3h4zM15 10h-4v-3h4zM15 6h-4v-3h4z"></path>
</svg>

<svg width="16" height="16" viewBox="0 0 16 16" fill="rgb(34, 34, 34)" xmlns="http://www.w3.org/2000/svg"><title>chart-table</title><path d="M15 1H1C0.448 1.002 0.002 1.448 0 2V14C0.002 14.552 0.448 14.998 1 15H15C15.552 14.998 15.998 14.552 16 14V2C15.998 1.448 15.552 1.002 15 1ZM10 3V6H6V3H10ZM10 7V10H6V7H10ZM1 3H5V6H1V3ZM1 7H5V10H1V7ZM1 14V11H5V14H1ZM6 14V11H10V14H6ZM15 14H11V11H15V14ZM15 10H11V7H15V10ZM15 6H11V3H15V6Z" fill="rgb(34, 34, 34)" fill-opacity="1.00"/></svg>
